X:4896
L:1/8
M:6/8
K:Eb
 G/>A/ | B2 c/d/ e2 e | e3 d2 e/f/ | g2 e fe e | e3 e>fg/e/ | d<BA G<EF/G/ | A3 B2 A | A G2 E2 E | 
 E3 E2 || (3E/F/G/ | A3 B2 G | A2 G E2 z | e2 f/g/ a2 g | g<ee e>fg/e/ | d<BA G<EF/G/ | A3 dBA | 
 A<GE E2 E | (E3 E2) ||

